**kern	**silbe	**kern	**silbe	**harmony	**chordsym	**phrase	**timestamp	**leadinstrument
*ICvox	*	*ICvox	*	*M4/4	*M4/4	*	*	*
*G:	*	*G:	*	*G:	*G:	*	*	*
*M4/4	*	*M4/4	*	*	*	*	*	*
*clefC3	*	*clefG2	*	*	*	*	*	*
r;	.	r;	.	1r;	r	.	0	r
=1	=1	=1	=1	=1	=1	=1	=1	=1
*	*	*	*	*>A_intro	*>A_intro	*>A_intro	*>A_intro	*>A_intro
1r	.	1r	.	1GM	G:maj (G B D)	newline	0.209	guitar
=2	=2	=2	=2	=2	=2	=2	=2	=2
1r	.	1r	.	1DM	D:maj (D F# A)	.	.	guitar
=3	=3	=3	=3	=3	=3	=3	=3	=3
1r	.	1r	.	1CM	C:maj (C E G)	.	.	guitar
=4	=4	=4	=4	=4	=4	=4	=4	=4
1r	.	1r	.	1CM	C:maj (C E G)	.	.	guitar
=5	=5	=5	=5	=5	=5	=5	=5	=5
1r	.	1r	.	1GM	G:maj (G B D)	newline	8.453	guitar
=6	=6	=6	=6	=6	=6	=6	=6	=6
1r	.	1r	.	1DM	D:maj (D F# A)	.	.	guitar
=7	=7	=7	=7	=7	=7	=7	=7	=7
1r	.	1r	.	1CM	C:maj (C E G)	.	.	guitar
=8	=8	=8	=8	=8	=8	=8	=8	=8
2r	.	1r	.	1CM	C:maj (C E G)	.	.	guitar
4r	.	.	.	.	.	.	.	.
8e	Well,	.	.	.	.	.	.	.
8d	I	.	.	.	.	.	.	.
=9	=9	=9	=9	=9	=9	=9	=9	=9
*	*	*	*	*>A_verse	*>A_verse	*>A_verse	*>A_verse	*>A_verse
8dq	_	.	.	.	.	.	.	.
4e	heard	1r	.	1GM	G:maj (G B D)	newline	15.17	voice
8d	some	.	.	.	.	.	.	.
[8d	peo	.	.	.	.	.	.	.
8d]	_	.	.	.	.	.	.	.
4d	ple	.	.	.	.	.	.	.
8d	tal	.	.	.	.	.	.	.
=10	=10	=10	=10	=10	=10	=10	=10	=10
8e	_	1r	.	1DM	D:maj (D F# A)	.	.	voice
4d	king	.	.	.	.	.	.	.
8A	just	.	.	.	.	.	.	.
4B	_	.	.	.	.	.	.	.
8A	the	.	.	.	.	.	.	.
8B	o-	.	.	.	.	.	.	.
=11	=11	=11	=11	=11	=11	=11	=11	=11
8A	-ther	1r	.	1CM	C:maj (C E G)	.	.	voice
16B	day	.	.	.	.	.	.	.
16A	_	.	.	.	.	.	.	.
4G	_	.	.	.	.	.	.	.
2r	.	.	.	.	.	.	.	.
=12	=12	=12	=12	=12	=12	=12	=12	=12
2r	.	1r	.	1CMm	C:7 (C E G B-)	.	.	voice
4r	.	.	.	.	.	.	.	.
8d	And	.	.	.	.	.	.	.
8d	they	.	.	.	.	.	.	.
=13	=13	=13	=13	=13	=13	=13	=13	=13
4e	said	1r	.	1GM	G:maj (G B D)	newline	21.712	voice
8d	you	.	.	.	.	.	.	.
8d	were	.	.	.	.	.	.	.
4d	gon-	.	.	.	.	.	.	.
8d	-na	.	.	.	.	.	.	.
8d	put	.	.	.	.	.	.	.
=14	=14	=14	=14	=14	=14	=14	=14	=14
8r	.	1r	.	1DM	D:maj (D F# A)	.	.	voice
4d	me	.	.	.	.	.	.	.
[8d	on	.	.	.	.	.	.	.
4d]	_	.	.	.	.	.	.	.
8B	a	.	.	.	.	.	.	.
8Gq	_	.	.	.	.	.	.	.
[8A	shelf	.	.	.	.	.	.	.
=15	=15	=15	=15	=15	=15	=15	=15	=15
8A]	_	1r	.	1CM	C:maj (C E G)	.	.	voice
8G	_	.	.	.	.	.	.	.
4r	.	.	.	.	.	.	.	.
2r	.	.	.	.	.	.	.	.
=16	=16	=16	=16	=16	=16	=16	=16	=16
4r	.	1r	.	1CM	C:maj (C E G)	.	.	voice
8r	.	.	.	.	.	.	.	.
8G	But	.	.	.	.	.	.	.
8e	let	.	.	.	.	.	.	.
8d	me	.	.	.	.	.	.	.
16e	tell	.	.	.	.	.	.	.
16d	you,	.	.	.	.	.	.	.
8d	I	.	.	.	.	.	.	.
=17	=17	=17	=17	=17	=17	=17	=17	=17
8e	got	1r	.	1GM	G:maj (G B D)	newline	28.286	voice
8r	.	.	.	.	.	.	.	.
8d	some	.	.	.	.	.	.	.
[8d	news	.	.	.	.	.	.	.
4d]	_	.	.	.	.	.	.	.
8d	for	.	.	.	.	.	.	.
8d	you	.	.	.	.	.	.	.
=18	=18	=18	=18	=18	=18	=18	=18	=18
12B	_	1r	.	1DM	D:maj (D F# A)	.	.	voice
6A	_	.	.	.	.	.	.	.
4r	.	.	.	.	.	.	.	.
8r	.	.	.	.	.	.	.	.
8c	and	.	.	.	.	.	.	.
8d	you'll	.	.	.	.	.	.	.
8d	soon	.	.	.	.	.	.	.
=19	=19	=19	=19	=19	=19	=19	=19	=19
4e	_	1r	.	1CM	C:maj (C E G)	.	.	voice
4e	find	.	.	.	.	.	.	.
8e	out	.	.	.	.	.	.	.
8d	_	.	.	.	.	.	.	.
8B	it's	.	.	.	.	.	.	.
[8c	true	.	.	.	.	.	.	.
=20	=20	=20	=20	=20	=20	=20	=20	=20
4c]	_	1r	.	1CMm	C:7 (C E G B-)	.	.	voice
4r	.	.	.	.	.	.	.	.
8r	.	.	.	.	.	.	.	.
8A	and	.	.	.	.	.	.	.
8e	then	.	.	.	.	.	.	.
8d	you'll	.	.	.	.	.	.	.
=21	=21	=21	=21	=21	=21	=21	=21	=21
8eq	_	.	.	.	.	.	.	.
4d	have	1r	.	1GM	G:maj (G B D)	newline	34.859	voice
8d	to	.	.	.	.	.	.	.
[8d	eat	.	.	.	.	.	.	.
8d]	_	.	.	.	.	.	.	.
4d	your	.	.	.	.	.	.	.
[8d	lunch	.	.	.	.	.	.	.
=22	=22	=22	=22	=22	=22	=22	=22	=22
8d]	_	1r	.	1DM	D:maj (D F# A)	.	.	voice
4d	all	.	.	.	.	.	.	.
[8d	by	.	.	.	.	.	.	.
8d]	_	.	.	.	.	.	.	.
8d	your-	.	.	.	.	.	.	.
16B	-self	.	.	.	.	.	.	.
16A	_	.	.	.	.	.	.	.
8G	_	.	.	.	.	.	.	.
=23	=23	=23	=23	=23	=23	=23	=23	=23
1r	.	1r	.	1CM	C:maj (C E G)	.	.	voice
=24	=24	=24	=24	=24	=24	=24	=24	=24
*clefGv2	*	*	*	*	*	*	*	*
2r	.	2r	.	1CM	C:maj (C E G)	.	.	voice
8B	Cuz	8B	Cuz	.	.	.	.	.
4d	I'm	4d	I'm	.	.	.	.	.
8f#q	_	8aq	_	.	.	.	.	.
[8g	al	[8d [b	al	.	.	.	.	.
=25	=25	=25	=25	=25	=25	=25	=25	=25
*	*	*	*	*>B_chorus	*>B_chorus	*>B_chorus	*>B_chorus	*>B_chorus
1g]	_	1d] b]	_	1GM	G:maj (G B D)	newline	41.409	voice
=26	=26	=26	=26	=26	=26	=26	=26	=26
2f#	_	2d a	_	1DM	D:maj (D F# A)	.	.	voice
8e	rea	8B g	rea	.	.	.	.	.
8d	_	8A f#	_	.	.	.	.	.
8B	dy	8G d	dy	.	.	.	.	.
[8c	gone	[8G [e	gone	.	.	.	.	.
=27	=27	=27	=27	=27	=27	=27	=27	=27
4c]	_	4G] e]	_	1CM	C:maj (C E G)	.	.	voice
4r	.	4r	.	.	.	.	.	.
2r	.	2r	.	.	.	.	.	.
=28	=28	=28	=28	=28	=28	=28	=28	=28
2r	.	2r	.	1CM	C:maj (C E G)	.	.	voice
8B	And	8e	And	.	.	.	.	.
4d	I'm	4g	I'm	.	.	.	.	.
8f#q	_	8aq	_	.	.	.	.	.
[8g	fee	[8d [b	fee	.	.	.	.	.
=29	=29	=29	=29	=29	=29	=29	=29	=29
1g]	_	1d] b]	_	1GM	G:maj (G B D)	newline	48.022	voice
=30	=30	=30	=30	=30	=30	=30	=30	=30
2.f#	_	2.d a	_	1DM	D:maj (D F# A)	.	.	voice
4d	ling	4B f#	ling	.	.	.	.	.
=31	=31	=31	=31	=31	=31	=31	=31	=31
8d	strong	8A f#	strong	1CM	C:maj (C E G)	.	.	voice
4c	_	4G e	_	.	.	.	.	.
8r	.	8r	.	.	.	.	.	.
2r	.	2r	.	.	.	.	.	.
=32	=32	=32	=32	=32	=32	=32	=32	=32
2r	.	2r	.	1CM	C:maj (C E G)	.	.	voice
8B	I	8e	I	.	.	.	.	.
4d	will	4g	will	.	.	.	.	.
8f#q	_	8aq	_	.	.	.	.	.
[8g	sing	[8d [b	sing	.	.	.	.	.
=33	=33	=33	=33	=33	=33	=33	=33	=33
1g]	_	1d_ b]	_	1GM	G:maj (G B D)	newline	54.546	voice
=34	=34	=34	=34	=34	=34	=34	=34	=34
4f#	_	4d] a	_	1DM	D:maj (D F# A)	.	.	voice
4f#	this	4d a	this	.	.	.	.	.
8cq	_	.	.	.	.	.	.	.
4d	vic-	4B g	vic-	.	.	.	.	.
8d	-'try	8A f#	-'try	.	.	.	.	.
[8d	song	[8A [f#	song	.	.	.	.	.
=35	=35	=35	=35	=35	=35	=35	=35	=35
8d]	_	8A] f#]	_	1CM	C:maj (C E G)	.	.	voice
4c	_	4G e	_	.	.	.	.	.
8r	.	8r	.	.	.	.	.	.
2r	.	2r	.	.	.	.	.	.
=36	=36	=36	=36	=36	=36	=36	=36	=36
2r	.	1r	.	1CM	C:maj (C E G)	.	.	voice
8ee	Woo-	.	.	.	.	.	.	.
8ee	-hoo	.	.	.	.	.	.	.
8b	_	.	.	.	.	.	.	.
[8dd	hoo	.	.	.	.	.	.	.
=37	=37	=37	=37	=37	=37	=37	=37	=37
8dd]	_	1r	.	1GM	G:maj (G B D)	newline	61.073	voice
8ee	_	.	.	.	.	.	.	.
4r	.	.	.	.	.	.	.	.
8r	.	.	.	.	.	.	.	.
8B-q	_	.	.	.	.	.	.	.
4.A	My,	.	.	.	.	.	.	.
=38	=38	=38	=38	=38	=38	=38	=38	=38
4A	my	1r	.	1DM	D:maj (D F# A)	.	.	voice
4r	.	.	.	.	.	.	.	.
8dd	Woo-	.	.	.	.	.	.	.
4a	-hoo	.	.	.	.	.	.	.
8b-q	_	.	.	.	.	.	.	.
[8a	hoo	.	.	.	.	.	.	.
=39	=39	=39	=39	=39	=39	=39	=39	=39
8a]	_	1r	.	1CM	C:maj (C E G)	.	.	voice
8g	_	.	.	.	.	.	.	.
4r	.	.	.	.	.	.	.	.
2r	.	.	.	.	.	.	.	.
=40	=40	=40	=40	=40	=40	=40	=40	=40
2r	.	1r	.	1CM	C:maj (C E G)	.	.	voice
4r	.	.	.	.	.	.	.	.
8r	.	.	.	.	.	.	.	.
8G	The	.	.	.	.	.	.	.
=41	=41	=41	=41	=41	=41	=41	=41	=41
*	*	*	*	*>A_verse	*>A_verse	*>A_verse	*>A_verse	*>A_verse
8cq	_	.	.	.	.	.	.	.
8d	let-	1r	.	1GM	G:maj (G B D)	newline	67.661	voice
4d	-ter	.	.	.	.	.	.	.
[8d	that	.	.	.	.	.	.	.
4d]	_	.	.	.	.	.	.	.
4d	you	.	.	.	.	.	.	.
=42	=42	=42	=42	=42	=42	=42	=42	=42
8B	wrote	1r	.	1DM	D:maj (D F# A)	.	.	voice
8A	_	.	.	.	.	.	.	.
4A	me	.	.	.	.	.	.	.
4r	.	.	.	.	.	.	.	.
8d	made	.	.	.	.	.	.	.
8d	me	.	.	.	.	.	.	.
=43	=43	=43	=43	=43	=43	=43	=43	=43
4.e	stop	1r	.	1CM	C:maj (C E G)	.	.	voice
8e	and	.	.	.	.	.	.	.
8e	won	.	.	.	.	.	.	.
8d	_	.	.	.	.	.	.	.
8c	der	.	.	.	.	.	.	.
[8c	why	.	.	.	.	.	.	.
=44	=44	=44	=44	=44	=44	=44	=44	=44
8c]	_	1r	.	1CMm	C:7 (C E G B-)	.	.	voice
8A	_	.	.	.	.	.	.	.
4G	_	.	.	.	.	.	.	.
4r	.	.	.	.	.	.	.	.
8d	but	.	.	.	.	.	.	.
8d	I	.	.	.	.	.	.	.
=45	=45	=45	=45	=45	=45	=45	=45	=45
8e	guess	1r	.	1GM	G:maj (G B D)	newline	74.255	voice
4d	you	.	.	.	.	.	.	.
[8d	felt	.	.	.	.	.	.	.
8d]	_	.	.	.	.	.	.	.
4d	like	.	.	.	.	.	.	.
8B	you	.	.	.	.	.	.	.
=46	=46	=46	=46	=46	=46	=46	=46	=46
8cq	_	.	.	.	.	.	.	.
4d	had	1r	.	1DM	D:maj (D F# A)	.	.	voice
8d	to	.	.	.	.	.	.	.
[8d	set	.	.	.	.	.	.	.
8d]	_	.	.	.	.	.	.	.
4d	things	.	.	.	.	.	.	.
16B	right	.	.	.	.	.	.	.
16A	_	.	.	.	.	.	.	.
=47	=47	=47	=47	=47	=47	=47	=47	=47
4G	_	1r	.	1CM	C:maj (C E G)	.	.	voice
4r	.	.	.	.	.	.	.	.
2r	.	.	.	.	.	.	.	.
=48	=48	=48	=48	=48	=48	=48	=48	=48
1r	.	1r	.	1CM	C:maj (C E G)	.	.	voice
=49	=49	=49	=49	=49	=49	=49	=49	=49
8dq	_	8eq	_	.	.	.	.	.
4e	Just	4g	Just	1GM	G:maj (G B D)	newline	80.776	voice
8d	re-	8g	re-	.	.	.	.	.
[8d	-mem	[8g	-mem	.	.	.	.	.
8d]	_	8g]	_	.	.	.	.	.
4d	ber	4g	ber	.	.	.	.	.
[8d	this,	[8g	this,	.	.	.	.	.
=50	=50	=50	=50	=50	=50	=50	=50	=50
8d]	_	8g]	_	1DM	D:maj (D F# A)	.	.	voice
4d	my	4g	my	.	.	.	.	.
16B	girl	16d	girl	.	.	.	.	.
16A	_	16c	_	.	.	.	.	.
8G	_	8B	_	.	.	.	.	.
8r	.	8r	.	.	.	.	.	.
8G	when	8B	when	.	.	.	.	.
8G	you	8B	you	.	.	.	.	.
=51	=51	=51	=51	=51	=51	=51	=51	=51
8e	look	8g	look	1CM	C:maj (C E G)	.	.	voice
8dq	_	8f#q	_	.	.	.	.	.
[8e	up	[8g	up	.	.	.	.	.
4e]	_	4g]	_	.	.	.	.	.
8e	in	8g	in	.	.	.	.	.
8d	_	8f	_	.	.	.	.	.
8c	the	8e	the	.	.	.	.	.
[8c	sky	[8e	sky	.	.	.	.	.
=52	=52	=52	=52	=52	=52	=52	=52	=52
4c]	_	4e]	_	1CM	C:maj (C E G)	.	.	voice
4r	.	4r	.	.	.	.	.	.
4r	.	4r	.	.	.	.	.	.
8e	you	8g	you	.	.	.	.	.
8d	can	8g	can	.	.	.	.	.
=53	=53	=53	=53	=53	=53	=53	=53	=53
8eq	_	8bq	_	.	.	.	.	.
4d	see	4g	see	1GM	G:maj (G B D)	newline	87.397	voice
8d	the	8g	the	.	.	.	.	.
[8d	stars	[8g	stars	.	.	.	.	.
4d]	_	4g]	_	.	.	.	.	.
8B	and	8e	and	.	.	.	.	.
8cq	_	8f#q	_	.	.	.	.	.
[8d	still	[8g	still	.	.	.	.	.
=54	=54	=54	=54	=54	=54	=54	=54	=54
8d]	_	8g]	_	1DM	D:maj (D F# A)	.	.	voice
4d	not	4g	not	.	.	.	.	.
[8d	see	[8g	see	.	.	.	.	.
8d]	_	8g]	_	.	.	.	.	.
8d	the	8g	the	.	.	.	.	.
16B	light	16d	light	.	.	.	.	.
16A	_	16c	_	.	.	.	.	.
8G	_	8B	_	.	.	.	.	.
=55	=55	=55	=55	=55	=55	=55	=55	=55
2r	.	1r	.	1CM	C:maj (C E G)	.	.	voice
8r	.	.	.	.	.	.	.	.
8A	That's	.	.	.	.	.	.	.
[4G	right	.	.	.	.	.	.	.
=56	=56	=56	=56	=56	=56	=56	=56	=56
8G]	_	2r	.	1CM	C:maj (C E G)	.	.	voice
8r	.	.	.	.	.	.	.	.
4r	.	.	.	.	.	.	.	.
8B	Cuz	8B	Cuz	.	.	.	.	.
4d	I'm	4d	I'm	.	.	.	.	.
8f#q	_	8aq	_	.	.	.	.	.
[8g	al	[8d [b	al	.	.	.	.	.
=57	=57	=57	=57	=57	=57	=57	=57	=57
*	*	*	*	*>B_chorus	*>B_chorus	*>B_chorus	*>B_chorus	*>B_chorus
1g]	_	1d] b]	_	1GM	G:maj (G B D)	newline	93.904	voice
=58	=58	=58	=58	=58	=58	=58	=58	=58
2f#	_	2d a	_	1DM	D:maj (D F# A)	.	.	voice
8e	rea	8B g	rea	.	.	.	.	.
8d	_	8A f#	_	.	.	.	.	.
8B	dy	8G e	dy	.	.	.	.	.
[8c	gone	[8G [e	gone	.	.	.	.	.
=59	=59	=59	=59	=59	=59	=59	=59	=59
4c]	_	4G] e]	_	1CM	C:maj (C E G)	.	.	voice
4r	.	4r	.	.	.	.	.	.
2r	.	2r	.	.	.	.	.	.
=60	=60	=60	=60	=60	=60	=60	=60	=60
2r	.	2r	.	1CM	C:maj (C E G)	.	.	voice
8B	And	8e	And	.	.	.	.	.
4d	I'm	4g	I'm	.	.	.	.	.
8f#q	_	8aq	_	.	.	.	.	.
[8g	fee	[8d [b	fee	.	.	.	.	.
=61	=61	=61	=61	=61	=61	=61	=61	=61
1g]	_	1d] b]	_	1GM	G:maj (G B D)	newline	100.468	voice
=62	=62	=62	=62	=62	=62	=62	=62	=62
2.f#	_	2d a	_	1DM	D:maj (D F# A)	.	.	voice
.	.	4AQ 4f#Q	_	.	.	.	.	.
.	.	4B g	_	.	.	.	.	.
4d	ling	4B f#	ling	.	.	.	.	.
=63	=63	=63	=63	=63	=63	=63	=63	=63
8d	strong	16B g	strong	1CM	C:maj (C E G)	.	.	voice
.	.	16A f#	_	.	.	.	.	.
4c	_	4G e	_	.	.	.	.	.
8r	.	8r	.	.	.	.	.	.
2r	.	2r	.	.	.	.	.	.
=64	=64	=64	=64	=64	=64	=64	=64	=64
2r	.	2r	.	1CM	C:maj (C E G)	.	.	voice
8B	I	8e	I	.	.	.	.	.
4d	will	4g	will	.	.	.	.	.
8f#q	_	8dq 8aq	_	.	.	.	.	.
[8g	sing	[8e [b	sing	.	.	.	.	.
=65	=65	=65	=65	=65	=65	=65	=65	=65
1g]	_	8e] b_	_	1GM	G:maj (G B D)	newline	107.009	voice
.	.	[8d b_	_	.	.	.	.	.
.	.	2.d] b]	_	.	.	.	.	.
=66	=66	=66	=66	=66	=66	=66	=66	=66
4f#	_	4d a	_	1DM	D:maj (D F# A)	.	.	voice
4f#	this	4d a	this	.	.	.	.	.
8cq	_	.	.	.	.	.	.	.
4d	vic-	4B g	vic-	.	.	.	.	.
8d	-'try	8A f#	-'try	.	.	.	.	.
[8d	song	[8A [f#	song	.	.	.	.	.
=67	=67	=67	=67	=67	=67	=67	=67	=67
8d]	_	8A] f#]	_	1CM	C:maj (C E G)	.	.	voice
4c	_	4G e	_	.	.	.	.	.
8r	.	8r	.	.	.	.	.	.
2r	.	2r	.	.	.	.	.	.
=68	=68	=68	=68	=68	=68	=68	=68	=68
2r	.	2r	.	1CM	C:maj (C E G)	.	.	voice
8ee	Woo-	8cc	Woo-	.	.	.	.	.
8ee	-hoo	8cc	-hoo	.	.	.	.	.
8b	_	8g	_	.	.	.	.	.
8dd	hoo	[8b	hoo	.	.	.	.	.
=69	=69	=69	=69	=69	=69	=69	=69	=69
8dd	_	8dd	_	1GM	G:maj (G B D)	newline	113.552	voice
8ee	_	8ee	_	.	.	.	.	.
4r	.	4r	.	.	.	.	.	.
8r	.	2r	.	.	.	.	.	.
8A	My,	.	.	.	.	.	.	.
8B	_	.	.	.	.	.	.	.
8A	_	.	.	.	.	.	.	.
=70	=70	=70	=70	=70	=70	=70	=70	=70
4A	my	2r	.	1DM	D:maj (D F# A)	.	.	voice
4r	.	.	.	.	.	.	.	.
8dd	Woo-	8b]	Woo-	.	.	.	.	.
8b	-hoo	8g	-hoo	.	.	.	.	.
8a	_	8f#	_	.	.	.	.	.
8b-q	_	8gq	_	.	.	.	.	.
[8a	hoo	[8f#	hoo	.	.	.	.	.
=71	=71	=71	=71	=71	=71	=71	=71	=71
8a]	_	8f#]	_	1CM	C:maj (C E G)	.	.	voice
8g	_	8e	_	.	.	.	.	.
4r	.	4r	.	.	.	.	.	.
2r	.	2r	.	.	.	.	.	.
=72	=72	=72	=72	=72	=72	=72	=72	=72
1r	.	1r	.	1CM	C:maj (C E G)	.	.	voice
=73	=73	=73	=73	=73	=73	=73	=73	=73
*	*	*	*	*>A_solo	*>A_solo	*>A_solo	*>A_solo	*>A_solo
1r	.	1r	.	1GM	G:maj (G B D)	newline	120.082	guitar
=74	=74	=74	=74	=74	=74	=74	=74	=74
1r	.	1r	.	1DM	D:maj (D F# A)	.	.	guitar
=75	=75	=75	=75	=75	=75	=75	=75	=75
1r	.	1r	.	1CM	C:maj (C E G)	.	.	guitar
=76	=76	=76	=76	=76	=76	=76	=76	=76
1r	.	1r	.	1CM	C:maj (C E G)	.	.	guitar
=77	=77	=77	=77	=77	=77	=77	=77	=77
1r	.	1r	.	1GM	G:maj (G B D)	newline	126.63	guitar
=78	=78	=78	=78	=78	=78	=78	=78	=78
1r	.	1r	.	1DM	D:maj (D F# A)	.	.	guitar
=79	=79	=79	=79	=79	=79	=79	=79	=79
1r	.	1r	.	1CM	C:maj (C E G)	.	.	guitar
=80	=80	=80	=80	=80	=80	=80	=80	=80
1r	.	1r	.	1CM	C:maj (C E G)	.	.	guitar
=81	=81	=81	=81	=81	=81	=81	=81	=81
1r	.	1r	.	1GM	G:maj (G B D)	newline	133.184	guitar
=82	=82	=82	=82	=82	=82	=82	=82	=82
1r	.	1r	.	1DM	D:maj (D F# A)	.	.	guitar
=83	=83	=83	=83	=83	=83	=83	=83	=83
1r	.	1r	.	1CM	C:maj (C E G)	.	.	guitar
=84	=84	=84	=84	=84	=84	=84	=84	=84
1r	.	1r	.	1CM	C:maj (C E G)	.	.	guitar
=85	=85	=85	=85	=85	=85	=85	=85	=85
1r	.	1r	.	1GM	G:maj (G B D)	newline	139.747	guitar
=86	=86	=86	=86	=86	=86	=86	=86	=86
1r	.	1r	.	1DM	D:maj (D F# A)	.	.	guitar
=87	=87	=87	=87	=87	=87	=87	=87	=87
1r	.	1r	.	1CM	C:maj (C E G)	.	.	guitar
=88	=88	=88	=88	=88	=88	=88	=88	=88
2r	.	1r	.	1CM	C:maj (C E G)	.	.	guitar
4r	.	.	.	.	.	.	.	.
8d	Well,	.	.	.	.	.	.	.
8B	I	.	.	.	.	.	.	.
=89	=89	=89	=89	=89	=89	=89	=89	=89
*	*	*	*	*>A_verse	*>A_verse	*>A_verse	*>A_verse	*>A_verse
8dq	_	.	.	.	.	.	.	.
4d	know	1r	.	1GM	G:maj (G B D)	newline	146.304	voice
8d	it	.	.	.	.	.	.	.
[8d	was	.	.	.	.	.	.	.
8d]	_	.	.	.	.	.	.	.
4d	n't	.	.	.	.	.	.	.
8d	you	.	.	.	.	.	.	.
=90	=90	=90	=90	=90	=90	=90	=90	=90
8e	_	1r	.	1DM	D:maj (D F# A)	.	.	voice
4d	_	.	.	.	.	.	.	.
8d	who	.	.	.	.	.	.	.
8d	held	.	.	.	.	.	.	.
8d	me	.	.	.	.	.	.	.
16B	down	.	.	.	.	.	.	.
16A	_	.	.	.	.	.	.	.
8G	_	.	.	.	.	.	.	.
=91	=91	=91	=91	=91	=91	=91	=91	=91
1r	.	1r	.	1CM	C:maj (C E G)	.	.	voice
=92	=92	=92	=92	=92	=92	=92	=92	=92
2r	.	1r	.	1CMm	C:7 (C E G B-)	.	.	voice
4r	.	.	.	.	.	.	.	.
8e	Hea-	.	.	.	.	.	.	.
8d	-ven	.	.	.	.	.	.	.
=93	=93	=93	=93	=93	=93	=93	=93	=93
8e	knows	1r	.	1GM	G:maj (G B D)	newline	152.862	voice
8d	_	.	.	.	.	.	.	.
8d	it	.	.	.	.	.	.	.
[8d	was	.	.	.	.	.	.	.
8d]	_	.	.	.	.	.	.	.
4d	n't	.	.	.	.	.	.	.
8d	you	.	.	.	.	.	.	.
=94	=94	=94	=94	=94	=94	=94	=94	=94
8e	_	1r	.	1DM	D:maj (D F# A)	.	.	voice
4d	_	.	.	.	.	.	.	.
8d	who	.	.	.	.	.	.	.
8d	set	.	.	.	.	.	.	.
8d	me	.	.	.	.	.	.	.
16B	free	.	.	.	.	.	.	.
16A	_	.	.	.	.	.	.	.
8G	_	.	.	.	.	.	.	.
=95	=95	=95	=95	=95	=95	=95	=95	=95
1r	.	1r	.	1CM	C:maj (C E G)	.	.	voice
=96	=96	=96	=96	=96	=96	=96	=96	=96
2r	.	1r	.	1CM	C:maj (C E G)	.	.	voice
4r	.	.	.	.	.	.	.	.
8e	So	.	.	.	.	.	.	.
8d	_	.	.	.	.	.	.	.
=97	=97	=97	=97	=97	=97	=97	=97	=97
6e	of-	6g	of-	1GM	G:maj (G B D)	newline	159.435	voice
6d	-ten-	6g	-ten-	.	.	.	.	.
[6d	-times	[6g	-times	.	.	.	.	.
4d]	_	4g]	_	.	.	.	.	.
8d	it	8g	it	.	.	.	.	.
8d	hap	8g	hap	.	.	.	.	.
=98	=98	=98	=98	=98	=98	=98	=98	=98
12B	_	12e	_	1DM	D:maj (D F# A)	.	.	voice
6A	pens	6d	pens	.	.	.	.	.
4r	.	4r	.	.	.	.	.	.
4r	.	4r	.	.	.	.	.	.
8d	that	8d	that	.	.	.	.	.
8d	we	8d	we	.	.	.	.	.
=99	=99	=99	=99	=99	=99	=99	=99	=99
8e	live	8g	live	1CM	C:maj (C E G)	.	.	voice
8dq	_	8eq	_	.	.	.	.	.
[8e	our	[8g	our	.	.	.	.	.
4e]	_	4g]	_	.	.	.	.	.
4e	lives	4g	lives	.	.	.	.	.
4e	in	4g	in	.	.	.	.	.
=100	=100	=100	=100	=100	=100	=100	=100	=100
8d	chains	8f	chains	1CM	C:maj (C E G)	.	.	voice
8c	_	8e	_	.	.	.	.	.
4r	.	4r	.	.	.	.	.	.
4r	.	4r	.	.	.	.	.	.
8c	and	8e	and	.	.	.	.	.
8d	we	8g	we	.	.	.	.	.
=101	=101	=101	=101	=101	=101	=101	=101	=101
8eq	_	.	.	.	.	.	.	.
8d	ne-	8g	ne-	1GM	G:maj (G B D)	newline	165.968	voice
4d	-ver	4g	-ver	.	.	.	.	.
[8d	e	[8g	e	.	.	.	.	.
8d]	_	8g]	_	.	.	.	.	.
4d	ven	4g	ven	.	.	.	.	.
8d	know	8g	know	.	.	.	.	.
=102	=102	=102	=102	=102	=102	=102	=102	=102
8e	_	8a	_	1DM	D:maj (D F# A)	.	.	voice
8d	_	8g	_	.	.	.	.	.
8d	we	8g	we	.	.	.	.	.
[8d	have	[8g	have	.	.	.	.	.
8d]	_	8g]	_	.	.	.	.	.
8d	the	8g	the	.	.	.	.	.
16B	key	16d	key	.	.	.	.	.
16A	_	16c	_	.	.	.	.	.
8G	_	8B	_	.	.	.	.	.
=103	=103	=103	=103	=103	=103	=103	=103	=103
1r	.	1r	.	1CM	C:maj (C E G)	.	.	voice
=104	=104	=104	=104	=104	=104	=104	=104	=104
8G	Yeah!	2r	.	1CM	C:maj (C E G)	.	.	voice
4r	.	.	.	.	.	.	.	.
8G	But	.	.	.	.	.	.	.
8B	me,	8B	Me,	.	.	.	.	.
4d	I'm	4d	I'm	.	.	.	.	.
8f#q	_	8aq	_	.	.	.	.	.
[8g	al	[8d [b	al	.	.	.	.	.
=105	=105	=105	=105	=105	=105	=105	=105	=105
*	*	*	*	*>B_chorus	*>B_chorus	*>B_chorus	*>B_chorus	*>B_chorus
1g]	_	1d] b]	_	1GM	G:maj (G B D)	newline	172.599	voice
=106	=106	=106	=106	=106	=106	=106	=106	=106
2f#	_	2d a	_	1DM	D:maj (D F# A)	.	.	voice
8e	rea	8B g	rea	.	.	.	.	.
8d	_	8A f#	_	.	.	.	.	.
8B	dy	8G e	dy	.	.	.	.	.
[8c	gone	[8G [e	gone	.	.	.	.	.
=107	=107	=107	=107	=107	=107	=107	=107	=107
4c]	_	4G] e]	_	1CM	C:maj (C E G)	.	.	voice
4r	.	4r	.	.	.	.	.	.
2r	.	2r	.	.	.	.	.	.
=108	=108	=108	=108	=108	=108	=108	=108	=108
2r	.	2r	.	1CM	C:maj (C E G)	.	.	voice
8B	And	8e	And	.	.	.	.	.
4d	I'm	4g	I'm	.	.	.	.	.
8f#q	_	8aq	_	.	.	.	.	.
[8g	fee	[8d [b	fee	.	.	.	.	.
=109	=109	=109	=109	=109	=109	=109	=109	=109
1g]	_	1d] b]	_	1GM	G:maj (G B D)	newline	179.142	voice
=110	=110	=110	=110	=110	=110	=110	=110	=110
2.f#	_	2d a dd	_	1DM	D:maj (D F# A)	.	.	voice
.	.	4AQ 4f#Q 4aQ	_	.	.	.	.	.
.	.	4B g b	_	.	.	.	.	.
4d	ling	8A f# a	ling	.	.	.	.	.
.	.	8G e g	_	.	.	.	.	.
=111	=111	=111	=111	=111	=111	=111	=111	=111
8d	strong	8A f# a	strong	1CM	C:maj (C E G)	.	.	voice
4c	_	4G e g	_	.	.	.	.	.
8r	.	8r	.	.	.	.	.	.
2r	.	2r	.	.	.	.	.	.
=112	=112	=112	=112	=112	=112	=112	=112	=112
*	*	*clefG2	*	*	*	*	*	*
2r	.	2r	.	1CM	C:maj (C E G)	.	.	voice
8B	I	8e	I	.	.	.	.	.
4d	will	4g	will	.	.	.	.	.
8f#q	_	8dq 8aq	_	.	.	.	.	.
[8g	sing	[8e [b	sing	.	.	.	.	.
=113	=113	=113	=113	=113	=113	=113	=113	=113
2g]	_	8e] b_	_	1GM	G:maj (G B D)	newline	185.687	voice
.	.	[8d b_	_	.	.	.	.	.
.	.	2.d_ b]	_	.	.	.	.	.
8d	I	.	.	.	.	.	.	.
4d	will	.	.	.	.	.	.	.
8eq	_	.	.	.	.	.	.	.
[8f#	siing	.	.	.	.	.	.	.
=114	=114	=114	=114	=114	=114	=114	=114	=114
4f#]	_	4d] a	_	1DM	D:maj (D F# A)	.	.	voice
4f#	this	4d a	this	.	.	.	.	.
8cq	_	.	.	.	.	.	.	.
4d	vic-	4B g	vic-	.	.	.	.	.
8d	-'try	8A f#	-'try	.	.	.	.	.
[8d	song	[8A [f#	song	.	.	.	.	.
=115	=115	=115	=115	=115	=115	=115	=115	=115
8d]	_	8A] f#]	_	1CM	C:maj (C E G)	.	.	voice
4c	_	4G e	_	.	.	.	.	.
8r	.	8r	.	.	.	.	.	.
2r	.	2r	.	.	.	.	.	.
=116	=116	=116	=116	=116	=116	=116	=116	=116
2r	.	2r	.	1CM	C:maj (C E G)	.	.	voice
8B	Cuz	8B	Cuz	.	.	.	.	.
4d	I'm	4d	I'm	.	.	.	.	.
8f#q	_	8aq	_	.	.	.	.	.
8g	al	[8d [b	al	.	.	.	.	.
=117	=117	=117	=117	=117	=117	=117	=117	=117
1g	_	1d] b]	_	1GM	G:maj (G B D)	newline	192.23	voice
=118	=118	=118	=118	=118	=118	=118	=118	=118
2f#	_	2d a	_	1DM	D:maj (D F# A)	.	.	voice
8e	rea	8B g	rea	.	.	.	.	.
8d	_	8A f#	_	.	.	.	.	.
8B	dy	8G e	dy	.	.	.	.	.
[8c	gone	[8G [e	gone	.	.	.	.	.
=119	=119	=119	=119	=119	=119	=119	=119	=119
4c]	_	4G] e]	_	1CM	C:maj (C E G)	.	.	voice
4r	.	4r	.	.	.	.	.	.
2r	.	2r	.	.	.	.	.	.
=120	=120	=120	=120	=120	=120	=120	=120	=120
2r	.	2r	.	1CM	C:maj (C E G)	.	.	voice
8e	Cuz	4r	.	.	.	.	.	.
4g	I'm	.	.	.	.	.	.	.
.	.	8r	.	.	.	.	.	.
8gq	_	.	.	.	.	.	.	.
[8a	al	[8c [e [cc	al	.	.	.	.	.
=121	=121	=121	=121	=121	=121	=121	=121	=121
*	*	*	*	*>B_chorus	*>B_chorus	*>B_chorus	*>B_chorus	*>B_chorus
8a]	_	1c] e] cc]	_	1GM	G:maj (G B D)	newline	198.799	voice
[8g	_	.	.	.	.	.	.	.
2.g_	_	.	.	.	.	.	.	.
=122	=122	=122	=122	=122	=122	=122	=122	=122
2g]	_	2d b	_	1DM	D:maj (D F# A)	.	.	voice
8g	rea	8B d	rea	.	.	.	.	.
8a	_	8c e	_	.	.	.	.	.
8g	dy	8B d	dy	.	.	.	.	.
[8g	gone	[8B [d	gone	.	.	.	.	.
=123	=123	=123	=123	=123	=123	=123	=123	=123
8g]	_	8B] d]	_	1CM	C:maj (C E G)	.	.	voice
4f	_	4A c	_	.	.	.	.	.
8r	.	8r	.	.	.	.	.	.
2r	.	2r	.	.	.	.	.	.
=124	=124	=124	=124	=124	=124	=124	=124	=124
2r	.	2r	.	1CM	C:maj (C E G)	.	.	voice
8e	And	4r	.	.	.	.	.	.
4g	I'm	.	.	.	.	.	.	.
.	.	8r	.	.	.	.	.	.
8f#q	_	.	.	.	.	.	.	.
[8g	fee	8B d b	fee	.	.	.	.	.
=125	=125	=125	=125	=125	=125	=125	=125	=125
1g_	_	1c e cc	_	1GM	G:maj (G B D)	newline	205.544	voice
=126	=126	=126	=126	=126	=126	=126	=126	=126
2g]	_	2d b	_	1DM	D:maj (D F# A)	.	.	voice
8gq	_	4BQ 4dQ	_	.	.	.	.	.
4a	_	4c e	_	.	.	.	.	.
4g	ling	4B d	ling	.	.	.	.	.
=127	=127	=127	=127	=127	=127	=127	=127	=127
8g	strong	8B d	strong	1CM	C:maj (C E G)	.	.	voice
4f	_	4A c	_	.	.	.	.	.
8r	.	8r	.	.	.	.	.	.
2r	.	2r	.	.	.	.	.	.
=128	=128	=128	=128	=128	=128	=128	=128	=128
2r	.	2r	.	1CM	C:maj (C E G)	.	.	voice
8e	I	4r	.	.	.	.	.	.
4g	will	.	.	.	.	.	.	.
.	.	8r	.	.	.	.	.	.
8f#q	_	.	.	.	.	.	.	.
[8g	sing	[8c [e [cc	sing	.	.	.	.	.
=129	=129	=129	=129	=129	=129	=129	=129	=129
1g_	_	1c] e] cc]	_	1GM	G:maj (G B D)	newline	212.024	voice
=130	=130	=130	=130	=130	=130	=130	=130	=130
4g]	_	4d b	_	1DM	D:maj (D F# A)	.	.	voice
4g	this	4d b	this	.	.	.	.	.
8dq	_	4BQ 4gQ	_	.	.	.	.	.
4e	vic-	4c a	vic-	.	.	.	.	.
8d	-'try	8B g	-'try	.	.	.	.	.
[8d	song	[8B [g	song	.	.	.	.	.
=131	=131	=131	=131	=131	=131	=131	=131	=131
8d]	_	8B] g]	_	1CM	C:maj (C E G)	.	.	voice
4c	_	4A f#	_	.	.	.	.	.
8r	.	8r	.	.	.	.	.	.
2r	.	2r	.	.	.	.	.	.
=132	=132	=132	=132	=132	=132	=132	=132	=132
2r	.	2r	.	1CM	C:maj (C E G)	.	.	voice
8e	Cuz	4r	.	.	.	.	.	.
4g	I'm	.	.	.	.	.	.	.
.	.	8r	.	.	.	.	.	.
[8g	al	[8c [e [cc	Al	.	.	.	.	.
=133	=133	=133	=133	=133	=133	=133	=133	=133
1g_	_	1c] e] cc]	_	1GM	G:maj (G B D)	newline	218.554	voice
=134	=134	=134	=134	=134	=134	=134	=134	=134
2g]	_	2d b	_	1DM	D:maj (D F# A)	.	.	voice
8g	rea	8B d	rea	.	.	.	.	.
8a	_	8c e	_	.	.	.	.	.
8g	dy	8B d	dy	.	.	.	.	.
[8g	gone	[8B [d	gone	.	.	.	.	.
=135	=135	=135	=135	=135	=135	=135	=135	=135
8g]	_	8B] d]	_	1CM	C:maj (C E G)	.	.	voice
4f	_	4A c	_	.	.	.	.	.
8r	.	8r	.	.	.	.	.	.
2r	.	2r	.	.	.	.	.	.
=136	=136	=136	=136	=136	=136	=136	=136	=136
2r	.	2r	.	1CM	C:maj (C E G)	.	.	voice
8e	Cuz	4r	.	.	.	.	.	.
4g	I'm	.	.	.	.	.	.	.
.	.	8r	.	.	.	.	.	.
[8g	al	[8c [e [cc	Al	.	.	.	.	.
=137	=137	=137	=137	=137	=137	=137	=137	=137
*	*	*	*	*>B_solo	*>B_solo	*>B_solo	*>B_solo	*>B_solo
1g_	_	1c] e] cc]	_	1GM	G:maj (G B D)	newline	225.052	guitar
=138	=138	=138	=138	=138	=138	=138	=138	=138
2g]	_	2d b	_	1DM	D:maj (D F# A)	.	.	guitar
8g	rea	8B d	rea	.	.	.	.	.
8a	_	8c e	_	.	.	.	.	.
8g	dy	8B d	dy	.	.	.	.	.
[8g	gone	[8B [d	gone	.	.	.	.	.
=139	=139	=139	=139	=139	=139	=139	=139	=139
8g]	_	8B] d]	_	1CM	C:maj (C E G)	.	.	guitar
4f	_	4A c	_	.	.	.	.	.
8r	.	8r	.	.	.	.	.	.
2r	.	2r	.	.	.	.	.	.
=140	=140	=140	=140	=140	=140	=140	=140	=140
1r	.	1r	.	1CM	C:maj (C E G)	.	.	guitar
=141	=141	=141	=141	=141	=141	=141	=141	=141
[1g	Al	1c e cc	Al	1GM	G:maj (G B D)	newline	231.636	guitar
=142	=142	=142	=142	=142	=142	=142	=142	=142
2g]	_	2d b	_	1DM	D:maj (D F# A)	.	.	guitar
8g	rea	8B d	rea	.	.	.	.	.
8a	_	8c e	_	.	.	.	.	.
8g	dy	8B d	dy	.	.	.	.	.
[8g	gone	[8B [d	gone	.	.	.	.	.
=143	=143	=143	=143	=143	=143	=143	=143	=143
8g]	_	8B] d]	_	1CM	C:maj (C E G)	.	.	guitar
4f	_	4A c	_	.	.	.	.	.
8r	.	8r	.	.	.	.	.	.
8r	.	2r	.	.	.	.	.	.
4c	All	.	.	.	.	.	.	.
[8G	right	.	.	.	.	.	.	.
=144	=144	=144	=144	=144	=144	=144	=144	=144
4G]	_	1r	.	1CM	C:maj (C E G)	.	.	guitar
8r	.	.	.	.	.	.	.	.
8c	N-	.	.	.	.	.	.	.
8c	-nigh-	.	.	.	.	.	.	.
8c	-ty	.	.	.	.	.	.	.
4G	night!	.	.	.	.	.	.	.
=145	=145	=145	=145	=145	=145	=145	=145	=145
*	*	*	*	*>_fadeout	*>_fadeout	*>_fadeout	*>_fadeout	*>_fadeout
[1g	Al	1c e cc	Al	1GM	G:maj (G B D)	newline	238.163	guitar
=146	=146	=146	=146	=146	=146	=146	=146	=146
2g]	_	2d b	_	1DM	D:maj (D F# A)	.	.	guitar
8g	rea	8B d	rea	.	.	.	.	.
8a	_	8c e	_	.	.	.	.	.
8g	dy	8B d	dy	.	.	.	.	.
[8g	gone	[8B [d	gone	.	.	.	.	.
=147	=147	=147	=147	=147	=147	=147	=147	=147
8g]	_	8B] d]	_	1CM	C:maj (C E G)	.	.	guitar
4f	_	4A c	_	.	.	.	.	.
8r	.	8r	.	.	.	.	.	.
2r	.	2r	.	.	.	.	.	.
=148	=148	=148	=148	=148	=148	=148	=148	=148
1r	.	1r	.	1CM	C:maj (C E G)	.	.	guitar
=149	=149	=149	=149	=149	=149	=149	=149	=149
[1g	Al	1c e cc	Al	1GM	G:maj (G B D)	newline	244.715	guitar
=150	=150	=150	=150	=150	=150	=150	=150	=150
2g]	_	2d b	_	1DM	D:maj (D F# A)	.	.	guitar
8g	rea	8B d	rea	.	.	.	.	.
8a	_	8c e	_	.	.	.	.	.
8g	dy	8B d	dy	.	.	.	.	.
8g	gone	8B d	gone	.	.	.	.	.
=151	=151	=151	=151	=151	=151	=151	=151	=151
1r	.	1r	.	1CM	C:maj (C E G)	.	.	guitar
=152	=152	=152	=152	=152	=152	=152	=152	=152
1r	.	1r	.	1CM	C:maj (C E G)	.	.	guitar
r;	.	r;	.	1r;	r	.	252.912	r
r;	.	r;	.	1r;	r	.	255.504	r
*-	*-	*-	*-	*-	*-	*-	*-	*-
!!!BillboardChartDate: 1974/05/04
!!!BillboardPeak: 32
!!!BillboardWeeksOnChart: 15
!!!COC: Eagles
!!!ENC: Nathaniel Condit-Schultz
!!!EST: Awating manual error checking and editing.
!!!OTL: Already Gone
!!!RDF**chordsym: original McGill chord annotation + (implied pitch class set, with bass pitch in first position)
!!!RDF**harmony: **recip + pitch class of root + harmonic quality
!!!RDF**leadinstrument: original McGill primary instrumentation annotation
!!!RDF**phrase: newline = linebreak in original McGill transcription
!!!RDF**timestamp: McGill audio timestamp in seconds
!!!RDT: 2017/01/12/
!!!SampleActualRank: 97
!!!SampleID#: 0209
!!!SampleTargetRank: 99
